!!!COM: de Machuat, Guillaume
!!!OTL: Sans cuer, dolens
!! Guillaume de Machaut, "Sans cuer, dolens" No. 4 from Volume 5 of
!! "Oeuvres Comple\tes" E/ditions de l'Oiseau-lyre (Monaco) -1977; p.3
**kern	**kern
*M3/4	*M3/4
=1	=1
2.G	2.g
=2	=2
2.A	4g
.	4r
.	4f#
=3	=3
2.c	4.g
.	8f
.	4e
=4	=4
2.B	4.d
.	8c
.	4d
=5	=5
2.A	2e
.	4d
=6	=6
4A	4.e
2G	.
.	8g
.	4f
=7	=7
2.A	4.e
.	8d
.	4c
=8	=8
2.e	4.B
.	8B
.	4A
=9	=9
[2.e	2A
.	4r
=10	=10
2.e]	2.c
=11	=11
8d	4.B
8c	.
4d	.
.	8c
4B	4d
=12	=12
[2.c	2d
.	4c
=13	=13
2c]	2c
4B	4d
=14	=14
2.A	2.e
=15	=15
4r	4e
4A	4r
4A	4a
=16	=16
2.c	2a
.	4g
=17	=17
2.d	4g
.	4r
.	4e
=18	=18
2c	4.f
.	8e
4B-	4f
=19	=19
[2.A	4.e
.	8d
.	4e
=20	=20
2.A]	2d
.	4c
=21	=21
2.G	4r
.	4e
.	4f
=22	=22
2.B-	4.g
.	8f
.	4e
=23	=23
[2.A	2d
.	4c
=24	=24
2.A;]	2.e;
=25	=25
2.G	2g
.	4f
=26	=26
2.c	8e
.	8d
.	4e
.	4c
=27	=27
[2.B	4.d
.	8c
.	4d
=28	=28
2.B]	4r
.	4f
.	4e
=29	=29
2.B	4.d
.	8c
.	4d
=30	=30
4r	2c
2d	.
.	4B
=31	=31
2.c	2.c
=32	=32
2.F	2r
.	4cc
=33	=33
2.F	4.cc
.	8b-
.	4a
=34	=34
2.G	2g
.	4f
=35	=35
[2.B-	2d
.	4c
=36	=36
2.B-]	4.d
.	8c
.	4d
=37	=37
2.A	2.e
=38	=38
2.G	4r
.	2g
=39	=39
2.F#	4.f#
.	8b
.	4a
=40	=40
2.A	4.a
.	8g
.	4f
=41	=41
2.A	2e
.	4d
=42	=42
2.c	2a
.	4g
=43	=43
1.G	1.g
==	==
*-	*-
